lib/brands/icons/mymicros.svg

<svg xmlns="http://www.w3.org/2000/svg" fill="none" aria-hidden="true" viewBox="0 0 48 48"><g id="mymicros-Icon"><g id="Union"><path fill="#1795CE" d="M7.01123 13.1507C7.01123 9.20548 10.2167 6 14.1619 6H31.4715V10.9315H14.1619C12.929 10.9315 11.9427 11.9178 11.9427 13.1507V32.3836H7.01123V13.1507Z"/><path fill="#1795CE" d="M36.0577 34.8493V15.6164H40.9892V34.8493C40.9892 38.7945 37.7837 42 33.8385 42H16.5289V37.0685H33.8385C35.0714 37.0685 36.0577 36.0822 36.0577 34.8493Z"/><path fill="#1795CE" d="M16.5289 32.2849V18.0822C16.5289 16.7014 17.6139 15.6165 18.9947 15.6165L21.4604 15.5671V29.8685C21.4604 31.2493 20.3755 32.3343 18.9947 32.3343L16.5289 32.2849Z"/><path fill="#1795CE" d="M26.4416 18.0822V32.2849L28.9073 32.3343C30.2881 32.3343 31.3731 31.2493 31.3731 29.8685V15.5671L28.9073 15.6165C27.5265 15.6165 26.4416 16.7014 26.4416 18.0822Z"/></g></g></svg>

<svg xmlns="http://www.w3.org/2000/svg" fill="none" aria-hidden="true" viewBox="0 0 48 48"><g fill="#1795CE"><path d="M7.011 13.15A7.156 7.156 0 0 1 14.161 6h17.31v4.931h-17.31a2.21 2.21 0 0 0-2.218 2.22v19.233H7.01V13.15Zm29.047 21.7V15.615h4.931V34.85A7.156 7.156 0 0 1 33.84 42H16.53v-4.931h17.31a2.21 2.21 0 0 0 2.219-2.22Z"/><path d="M16.529 32.285V18.082a2.442 2.442 0 0 1 2.466-2.466l2.465-.049V29.87a2.442 2.442 0 0 1-2.465 2.465l-2.466-.05Zm9.913-14.203v14.203l2.465.05a2.442 2.442 0 0 0 2.466-2.466V15.567l-2.466.05a2.442 2.442 0 0 0-2.465 2.465Z"/></g></svg>
